icons/actions/16/document-open-remote.svg

<?xml version="1.0"?>
<!-- Created with Inkscape (http://www.inkscape.org/) -->
<svg xmlns:dc="http://purl.org/dc/elements/1.1/" xmlns:cc="http://creativecommons.org/ns#" xmlns:rdf="http://www.w3.org/1999/02/22-rdf-syntax-ns#" xmlns:svg="http://www.w3.org/2000/svg" xmlns="http://www.w3.org/2000/svg" xmlns:sodipodi="http://sodipodi.sourceforge.net/DTD/sodipodi-0.dtd" xmlns:inkscape="http://www.inkscape.org/namespaces/inkscape" width="16" height="16" id="svg2" version="1.1" inkscape:version="0.91 r13725" viewBox="0 0 16 16" sodipodi:docname="document-open-remote.svg">
  <defs id="defs4">
    <style type="text/css" id="current-color-scheme">
      .ColorScheme-Text {
        color:#4d4d4d;
      }
      .ColorScheme-Background {
        color:#eff0f1;
      }
      .ColorScheme-Highlight {
        color:#3daee9;
      }
      .ColorScheme-ViewText {
        color:#31363b;
      }
      .ColorScheme-ViewBackground {
        color:#fcfcfc;
      }
      .ColorScheme-ViewHover {
        color:#93cee9;
      }
      .ColorScheme-ViewFocus{
        color:#3daee9;
      }
      .ColorScheme-ButtonText {
        color:#31363b;
      }
      .ColorScheme-ButtonBackground {
        color:#eff0f1;
      }
      .ColorScheme-ButtonHover {
        color:#93cee9;
      }
      .ColorScheme-ButtonFocus{
        color:#3daee9;
      }
      </style>
  </defs>
  <sodipodi:namedview id="base" pagecolor="#ffffff" bordercolor="#666666" borderopacity="1.0" inkscape:pageopacity="0.0" inkscape:pageshadow="2" inkscape:zoom="44.8" inkscape:cx="6.4220302" inkscape:cy="8.1951796" inkscape:document-units="px" inkscape:current-layer="layer1" showgrid="true" inkscape:showpageshadow="false" borderlayer="true" inkscape:window-width="1920" inkscape:window-height="957" inkscape:window-x="-4" inkscape:window-y="0" inkscape:window-maximized="1" units="px" inkscape:object-nodes="true">
    <inkscape:grid type="xygrid" id="grid4101"/>
    <sodipodi:guide position="2,14.000017" orientation="12,0" id="guide4071"/>
    <sodipodi:guide position="2,2.0000174" orientation="0,12" id="guide4073"/>
    <sodipodi:guide position="14,2.0000174" orientation="-12,0" id="guide4075"/>
    <sodipodi:guide position="14,14.000017" orientation="0,-12" id="guide4077"/>
  </sodipodi:namedview>
  <metadata id="metadata7">
    <rdf:RDF>
      <cc:Work rdf:about="">
        <dc:format>image/svg+xml</dc:format>
        <dc:type rdf:resource="http://purl.org/dc/dcmitype/StillImage"/>
        <dc:title/>
      </cc:Work>
    </rdf:RDF>
  </metadata>
  <g inkscape:label="Capa 1" inkscape:groupmode="layer" id="layer1" transform="translate(0,-1036.3622)">
    <path style="fill:currentColor;fill-opacity:1;stroke:none" d="m 2,2 0,1 0,3 0,1 0,4 1,0 0,-4 10,0 0,4 1,0 0,-5 0,-1 0,-1 -4.9921875,0 -2,-2 L 7,2.0078125 7,2 3,2 Z M 3,3 6.5917969,3 7.59375,4 7,4 7,4.0078125 6.9921875,4 l -2,2 L 3,6 Z" transform="translate(0,1036.3622)" id="rect4079" inkscape:connector-curvature="0" sodipodi:nodetypes="cccccccccccccccccccccccccccc" class="ColorScheme-Text"/>
    <path style="fill:currentColor;fill-opacity:1;fill-rule:evenodd;stroke:none" d="M 6 11 L 6 12 L 2 12 L 2 13 L 6 13 L 6 14 L 10 14 L 10 13 L 14 13 L 14 12 L 10 12 L 10 11 L 6 11 z M 7 12 L 8 12 L 9 12 L 9 13 L 8 13 L 7 13 L 7 12 z " transform="translate(0,1036.3622)" id="rect4146" class="ColorScheme-Text"/>
  </g>
</svg>

<svg xmlns="http://www.w3.org/2000/svg" viewBox="0 0 16 16">
  <defs id="defs3051">
    <style type="text/css" id="current-color-scheme">
      .ColorScheme-Text {
        color:#4d4d4d;
      }
      </style>
  </defs>
 <path style="fill:currentColor;fill-opacity:1;stroke:none" 
     d="M 2 2 L 2 3 L 2 6 L 2 7 L 2 11 L 3 11 L 3 7 L 13 7 L 13 11 L 14 11 L 14 6 L 14 5 L 14 4 L 9.0078125 4 L 7.0078125 2 L 7 2.0078125 L 7 2 L 3 2 L 2 2 z M 3 3 L 6.5917969 3 L 7.59375 4 L 7 4 L 7 4.0078125 L 6.9921875 4 L 4.9921875 6 L 3 6 L 3 3 z M 6 11 L 6 12 L 2 12 L 2 13 L 6 13 L 6 14 L 10 14 L 10 13 L 14 13 L 14 12 L 10 12 L 10 11 L 6 11 z M 7 12 L 8 12 L 9 12 L 9 13 L 8 13 L 7 13 L 7 12 z "
     class="ColorScheme-Text"
     />
</svg>
